image/in.svg

<svg width="45" height="45" viewBox="0 0 45 45" fill="none" xmlns="http://www.w3.org/2000/svg">
<path d="M40 0C41.3261 0 42.5979 0.526784 43.5355 1.46447C44.4732 2.40215 45 3.67392 45 5V40C45 41.3261 44.4732 42.5979 43.5355 43.5355C42.5979 44.4732 41.3261 45 40 45H5C3.67392 45 2.40215 44.4732 1.46447 43.5355C0.526784 42.5979 0 41.3261 0 40V5C0 3.67392 0.526784 2.40215 1.46447 1.46447C2.40215 0.526784 3.67392 0 5 0H40ZM38.75 38.75V25.5C38.75 23.3385 37.8913 21.2655 36.3629 19.7371C34.8345 18.2087 32.7615 17.35 30.6 17.35C29.4441 17.3898 28.3145 17.7056 27.3055 18.271C26.2965 18.8363 25.4374 19.6349 24.8 20.6V17.825H17.825V38.75H24.8V26.425C24.7591 25.9422 24.8189 25.4562 24.9756 24.9977C25.1322 24.5391 25.3824 24.1182 25.7103 23.7614C26.0381 23.4046 26.4364 23.1198 26.8801 22.9249C27.3237 22.7301 27.803 22.6295 28.2875 22.6295C28.772 22.6295 29.2513 22.7301 29.6949 22.9249C30.1386 23.1198 30.5369 23.4046 30.8647 23.7614C31.1926 24.1182 31.4428 24.5391 31.5994 24.9977C31.7561 25.4562 31.8159 25.9422 31.775 26.425V38.75H38.75ZM9.7 13.9C10.8139 13.9 11.8822 13.4575 12.6698 12.6698C13.4575 11.8822 13.9 10.8139 13.9 9.7C13.9448 9.11952 13.8691 8.53606 13.6776 7.98622C13.4862 7.43638 13.1833 6.93204 12.7877 6.50483C12.3922 6.07762 11.9126 5.73677 11.3791 5.50367C10.8456 5.27057 10.2697 5.15024 9.6875 5.15024C9.1053 5.15024 8.52938 5.27057 7.99588 5.50367C7.46238 5.73677 6.98282 6.07762 6.58728 6.50483C6.19174 6.93204 5.88876 7.43638 5.69736 7.98622C5.50595 8.53606 5.43025 9.11952 5.475 9.7C5.48161 10.8162 5.92965 11.8844 6.72128 12.6714C7.5129 13.4583 8.58378 13.9 9.7 13.9ZM13.175 38.75V17.825H6.25V38.75H13.175Z" fill="#BB2A2F"/>
</svg>

<svg xmlns="http://www.w3.org/2000/svg" width="45" height="45" fill="none"><path fill="#BB2A2F" d="M40 0a5 5 0 0 1 5 5v35a5 5 0 0 1-5 5H5a5 5 0 0 1-5-5V5a5 5 0 0 1 5-5h35Zm-1.25 38.75V25.5a8.15 8.15 0 0 0-8.15-8.15 7.25 7.25 0 0 0-5.8 3.25v-2.775h-6.975V38.75H24.8V26.425a3.5 3.5 0 1 1 6.975 0V38.75h6.975ZM9.7 13.9a4.2 4.2 0 0 0 4.2-4.2 4.223 4.223 0 0 0-4.213-4.55A4.225 4.225 0 0 0 5.476 9.7 4.225 4.225 0 0 0 9.7 13.9Zm3.475 24.85V17.825H6.25V38.75h6.925Z"/></svg>
